src/assets/image/telegram.svg

<svg width="19" height="18" viewBox="0 0 19 18" fill="none" xmlns="http://www.w3.org/2000/svg">
<path d="M19 1.10223L15.9946 16.7923C15.9946 16.7923 15.5741 17.8801 14.4189 17.3584L7.48458 11.8526L7.45242 11.8364C8.38909 10.9654 15.6524 4.20266 15.9698 3.89612C16.4613 3.42136 16.1562 3.13873 15.5856 3.49736L4.85679 10.553L0.717638 9.11077C0.717638 9.11077 0.0662573 8.87083 0.00359284 8.34911C-0.0598962 7.82653 0.739076 7.5439 0.739076 7.5439L17.6131 0.688948C17.6131 0.688948 19 0.05793 19 1.10223V1.10223Z" fill="#5356AE"/>
</svg>

<svg width="19" height="18" fill="none" xmlns="http://www.w3.org/2000/svg"><path d="m19 1.102-3.005 15.69s-.42 1.088-1.576.566l-6.934-5.505-.033-.017c.937-.87 8.2-7.633 8.518-7.94.491-.475.186-.757-.384-.399l-10.73 7.056L.719 9.111s-.652-.24-.714-.762c-.064-.522.735-.805.735-.805L17.613.689S19 .058 19 1.102Z" fill="#5356AE"/></svg>
